src/main/resources/img/action/ShowDiff.svg

<svg width="16" height="16" version="1.1" viewBox="0 0 16 16"  xmlns="http://www.w3.org/2000/svg"><g><path d="m13 9v3.2l-4.2-4.2 4.2-4.2v3.2h3v2z" fill="#389fd6"/><path d="m7 13v3.2l4.2-4.2-4.2-4.2v3.2h-3v2z" fill="#389fd6"/><path d="m5 6 3e-7 1h-5l-3.298e-7 -1zm3-2 4e-7 1h-8l-5.8733e-7 -1zm3.5-2v1l-11.5-1e-7 -1.4901e-7 -1zm0-2v1h-11.5l-3.4901e-7 -1zm-6.5 8 3e-7 1h-5l-3e-7 -1zm-3 2 3e-7 1h-2l-3e-7 -1z" fill="#6e6e6e" fill-rule="evenodd"/></g></svg>

<svg width="16" height="16" xmlns="http://www.w3.org/2000/svg"><path d="M13 9v3.2L8.8 8 13 3.8V7h3v2zM7 13v3.2l4.2-4.2L7 7.8V11H4v2z" fill="#389fd6"/><path d="M5 6v1H0V6zm3-2v1H0V4zm3.5-2v1H0V2zm0-2v1H0V0zM5 8v1H0V8zm-3 2v1H0v-1z" fill="#6e6e6e" fill-rule="evenodd"/></svg>
